svg/projector_screen_variant.svg

<svg xmlns="http://www.w3.org/2000/svg" viewBox="0 0 24 24"><path d="M19 18V9h1c.55 0 1-.45 1-1V7c0-.55-.45-1-1-1H4c-.55 0-1 .45-1 1v1c0 .55.45 1 1 1h1v9z"/></svg>

<svg xmlns="http://www.w3.org/2000/svg" id="mdi-projector-screen-variant" viewBox="0 0 24 24"><path d="M19 18V9H20C20.55 9 21 8.55 21 8V7C21 6.45 20.55 6 20 6H4C3.45 6 3 6.45 3 7V8C3 8.55 3.45 9 4 9H5V18H19Z" /></svg>
